X: 18106
T: Humours Of Ballymanus, The
R: slip jig
M: 9/8
K: Dmajor
ABA A2F A2E|ABA A2F Bcd|ABA A2F BAF|E2B B2A Bcd:|
d2e fed cBA|ddd fff a2f|d2e fed cBA|BBB B2A Bcd|
d2e fed cBA|ddd eee f2g|agf efd cBA|BBB B2A Bcd|

